X:26
T:Brendan O'Brien's Jig
C:Terence "Cuz" Teahan
B:Terry "Cuz" Teahan "Sliabh Luachra on Parade" 1980
Z:Patrick Cavanagh
M:6/8
L:1/8
R:Jig
K:D
A | d2d afa | afa afd | e2A ecA | Ace ecA | 
d2d afd | dfa baf | e2A ABc | dfe d2 :| 
d | g2g bag | f2d def | eAA ABA | ABc def | 
g2g bag | afd dfa | e2A ABc | dfe d2 :|| 

